X:365
T: Qiongren panwang laohongjun
N: C1866
O: China, Yunnan
S: II, 43]
R: Shange]
M: 2/4
L: 1/32
K: G
B4B4B3dB2AB | d16 | d2e2g4e2d2e2g2 | e4d2g2e2d2B2A2 | G16
A6B2B2A2G2E2 | D16
B4B4B2d2e4 | g4e2d2e4e2g2 | e4e2g2e2d2B2A2 | G16
A4A2B2B2A2G2E2 | D16
d4B4B2d2e4 | e2d2e2d2e2d2d2e2 | g12e4 | d4e2g2e2d2B2A2 | G16
d2B2A2B2A2G2E4 | D16

